X:1034
T:"The Mooncoin Jig"              1034
C:after Fr. Fielding
N:Hear this by Seeleye Span!
F
I:abc2nwc
M:6/8
L:1/8
K:A
"vb"cBA AEA|AEA Bcd|cBA Ace|dBG Bcd|
cBA AEA|AEA Bcd|Ace gfe|dBG Bcd:|
|:cde ef=g|(f/2g/2a)f ged|cde ef=g|(f/2g/2a)A Bcd|
cde efg|afd bge|afd gec|dBG Bcd:|
|:cBA Aaf|ecA Bcd|cBA =gfe|dBG Bcd|
cBA Aaa|Agg Aff|Aee efg|dBG Bcd:|
Q:1/4=170
K:G
"^As I learned it"BAG GDG|GDG ABc|BAG dBd|cA^E ABc|
BAG GDG|GDG ABc|GBd ^e=ed|cA^E ABc:|
Bcd de^e|e/2^e/2g=e ^edc|Bcd de^e|e/2^e/2gG ABc|
Bcd de^e|gec a^ed|gec ^ed^A|^e=ed dcd:|
BAG Gge|dBG ABc|BAG ^e=e^e|cA^E ABc|
BAG Ggg|G^ee G=ee|d3de^e|"^I like mine better!"cA^E ABc:|
